X:1
T:Thee will I love, my strength, my tower
T:Thee will I love, my strength, my tower - Zalmonah (John Fawcett)
C:John Fawcett
Z:p40, A Second Sett of
Z:Psalm & Hymn Tunes,
Z:London: [c1814]
%%score [ 1 ( 2 3 ) 4 5 ]
L:1/8
M:3/2
K:A
V:1 treble nm="SOPRANO" snm="S."
V:2 treble nm="ALTO" snm="A."
V:3 treble 
V:4 treble-8 transpose=-12 nm="TENOR" snm="T."
V:5 bass nm="BASS" snm="B."
V:1
"^Spirito" A4 A4 B4 | (c3 B c2 d2) e4 | (d4 c4) B4 | A8 c4 | (c4 B4) A4 | B8 G4 | (A4 d4) c4 | %7
w: Give to mine|eyes _ _ _ re-|fresh- * ing|tears Give|to _ my|heart chaste,|hal- * low'd|
w: Thee will I|love, _ _ _ my|strength, _ my|tow’r, Thee|will _ I|love, my|joy, _ my|
w: Ah, why did|I _ _ _ so|late _ thee|know, Thee,|love- * lier|than the|sons _ of|
 (c4 B4) z4 | B4 (B2 c2) (d2 e2) | (d4 c4) (c3 d) | (e4 d4) c4 | (c4 B4) G4 | (A4 B4) c4 | B8 e4 | %14
w: fires; _|Give to _ my _|soul, _ with _|fi- * lial|fears, _ The|love _ that|all heav’n’s|
w: crown; _|Thee will _ I _|love _ with _|all _ my|pow’r, _ In|all _ thy|works, and|
w: men: _|Ah, why _ did _|I _ no _|soo- * ner|go _ To|thee, _ the|on- ly|
 (c2 BA G4) F4 | E8 z4 | B4 B4 B4 | c8 A4 | (B3 c d4) c4 | B8 z4 | A4 A4 B4 | (c3 B c2 d2) e4 | %22
w: host _ _ _ in-|spires;|That all my|pow’rs, with|all _ _ their|might,|In thy sole|glo- * * * ry~|
w: thee _ _ _ a-|lone;|Thee will I|love, till|the _ _ pure|fire|Fill my whole|soul _ _ _ with|
w: ease _ _ _ in|pain?|A- sham’d, I|sigh, and|in- * * ly|mourn,|That I so|late _ _ _ to|
 (d4 c4) B4 | A8 z4 |] %24
w: may _ u-|nite.|
w: chaste _ de-|sire.|
w: thee _ did|turn.|
V:2
 E4 E4 E4 | E8 A4 | (F4 E4) E4 | E8 E4 | E8 ^D4 | E8 E4 | E8 E4 | E8 z4 | E4 E4 G4 | A8 E4 | %10
w: Give to mine|eyes re-|fresh- * ing|tears Give|to my|heart chaste,|hal- low'd|fires;|Give to my|soul, with|
w: Thee will I|love, my|strength, _ my|tow’r, Thee|will I|love, my|joy, my|crown;|Thee will I|love with|
w: Ah, why did|I so|late _ thee|know, Thee,|love- lier|than the|sons of|men:|Ah, why did|I no|
 E8 E4 | E8 E4 | (E3 F G4) A4 | G8 G4 | E8 ^D4 | E8 z4 | E4 E4 E4 | E8 E4 | E8 E4 | E8 z4 | %20
w: fi- lial|fears, The|love _ _ that|all heav’n’s|host in-|spires;|That all my|pow’rs, with|all their|might,|
w: all my|pow’r, In|all _ _ thy|works, and|thee a-|lone;|Thee will I|love, till|the pure|fire|
w: soo- ner|go To|thee, _ _ the|on- ly|ease in|pain?|A- sham’d, I|sigh, and|in- ly|mourn,|
 E4 E4 E4 | E8 A4 | (F4 E4) E4 | [CE]8 z4 |] %24
w: In thy sole|glo- ry~|may _ u-|nite.|
w: Fill my whole|soul with|chaste _ de-|sire.|
w: That I so|late to|thee _ did|turn.|
V:3
 x12 | x12 | x8 (E2 D2) | C8 x4 | x12 | x12 | x12 | x12 | x12 | x12 | x12 | x12 | x12 | x12 | x12 | %15
 x12 | x12 | x8 C4 | x12 | x12 | x12 | x12 | x12 | x12 |] %24
V:4
 c4 c4 B4 | (A3 G A2 B2) c4 | (B4 A4) G4 | A8 A4 | (A4 E4) A4 | G8 B4 | (c4 d2 B2) (c2 A2) | %7
w: Give to mine|eyes _ _ _ re-|fresh- * ing|tears Give|to _ my|heart chaste,|hal- * * low'd _|
w: Thee will I|love, _ _ _ my|strength, _ my|tow’r, Thee|will _ I|love, my|joy, _ _ my _|
w: Ah, why did|I _ _ _ so|late _ thee|know, Thee,|love- * lier|than the|sons _ _ of _|
 (A4 G4) z4 | G4 (G2 A2) (B2 c2) | (B4 A4) A4 | (A4 G4) A4 | (A4 G4) B4 | (c4 d4) e4 | e8 B4 | %14
w: fires; _|Give to _ my _|soul, _ with|fi- * lial|fears, _ The|love _ that|all heav’n’s|
w: crown; _|Thee will _ I _|love _ with|all _ my|pow’r, _ In|all _ thy|works, and|
w: men: _|Ah, why _ did _|I _ no|soo- * ner|go _ To|thee, _ the|on- ly|
 (A2 Bc B4) A4 | G8 z4 | G4 (G2 A2) (B2 G2) | A8 A4 | (G3 A B4) A4 | G8 z4 | c4 c4 B4 | %21
w: host _ _ _ in-|spires;|That all _ my _|pow’rs, with|all _ _ their|might,|In thy sole|
w: thee _ _ _ a-|lone;|Thee will _ I _|love, till|the _ _ pure|fire|Fill my whole|
w: ease _ _ _ in|pain?|A- sham’d, _ I _|sigh, and|in- * * ly|mourn,|That I so|
 (A3 G A2 B2) c4 | (B4 A4) G4 | A8 z4 |] %24
w: glo- * * * ry~|may _ u-|nite.|
w: soul _ _ _ with|chaste _ de-|sire.|
w: late _ _ _ to|thee _ did|turn.|
V:5
 A,,4 C,4 E,4 | A,8 C,4 | (D,4 E,4) E,4 | A,,8 A,4 | (A,4 G,4) F,4 | E,8 D,4 | (C,4 B,,4) A,,4 | %7
w: Give to mine|eyes re-|fresh- * ing|tears Give|to _ my|heart chaste,|hal- * low'd|
w: Thee will I|love, my|strength, _ my|tow’r, Thee|will _ I|love, my|joy, _ my|
w: Ah, why did|I so|late _ thee|know, Thee,|love- * lier|than the|sons _ of|
 E,8 z4 | E,4 E,4 E,4 | A,8 (A,3 B,) | (C4 B,4) A,4 | E,8 (E,2 D,2) | (C,4 B,,4) A,,4 | %13
w: fires;|Give to my|soul, with _|fi- * lial|fears, The _|love _ that|
w: crown;|Thee will I|love with _|all _ my|pow’r, In _|all _ thy|
w: men:|Ah, why did|I no _|soo- * ner|go To _|thee, _ the|
 (E,6 F,2) G,4 | (A,4 B,4) B,,4 | E,8 z4 | E,4 (E,2 F,2) (G,2 E,2) | A,8 [A,,A,]4 | %18
w: all _ heav’n’s|host _ in-|spires;|That all _ my _|pow’rs, with|
w: works, _ and|thee _ a-|lone;|Thee will _ I _|love, till|
w: on- * ly|ease _ in|pain?|A- sham’d, _ I _|sigh, and|
"^Notes: The first verse only of the text is given in the source: three other verses have been added editorially. Figuring of thevocal bass line and small notes on the soprano stave to indicate the harmony of a right-hand keyboard accompaniment,given in the source, have been omitted from this edition. The alto part is printed in the source in the treble clef, an octaveabove sounding pitch." E,8 A,4 | %19
w: all their|
w: the pure|
w: in- ly|
 (E,2 F,2 E,2 D,2 C,2 B,,2) | A,,4 C,4 E,4 | A,8 C,4 | (D,4 E,4) E,4 | A,,8 z4 |] %24
w: might, _ _ _ _ _|In thy sole|glo- ry~|may _ u-|nite.|
w: fire _ _ _ _ _|Fill my whole|soul with|chaste _ de-|sire.|
w: mourn, _ _ _ _ _|That I so|late to|thee _ did|turn.|

